symbols/web/dinner_dining/materialsymbolsrounded/dinner_dining_gradN25_24px.svg

<svg xmlns="http://www.w3.org/2000/svg" height="24" width="24"><path d="M4.3 20.825q-.075 0-.162-.037-.088-.038-.163-.113l-.9-.925q-.225-.225-.112-.513.112-.287.437-.287h17.275q.3 0 .425.287.125.288-.1.513l-.925.925q-.075.075-.15.113-.075.037-.175.037ZM3.25 17.9q.15-.45.388-.838.237-.387.562-.712V9.025h-.25q-.3 0-.512-.213-.213-.212-.213-.512 0-.3.213-.5.212-.2.512-.2h.25v-.75h-.25q-.3 0-.512-.213-.213-.212-.213-.512 0-.3.213-.5.212-.2.512-.2h.25v-.75h-.25q-.3 0-.512-.213-.213-.212-.213-.512 0-.3.213-.5.212-.2.512-.2h5.775q.9 0 1.525.625.625.625.625 1.55H20.2q.3 0 .5.2t.2.5q0 .3-.2.512-.2.213-.5.213h-8.325q0 .925-.625 1.55t-1.525.625H8.1v6.05q.4.05.75.163.35.112.65.337.575-1.525 1.925-2.513 1.35-.987 3.1-.987 2.35 0 3.937 1.7 1.588 1.7 1.363 4.075v.05Zm8.125-1.875h6.3q-.4-.975-1.237-1.525-.838-.55-1.913-.55-1.025 0-1.888.575-.862.575-1.262 1.5ZM8.1 5.425H10v-.75H8.1Zm0 2.175H10v-.75H8.1ZM5.625 5.425h1.05v-.75h-1.05Zm0 2.175h1.05v-.75h-1.05Zm0 7.75q.225-.125.488-.188.262-.062.562-.112V9.025h-1.05Zm5.75.675h6.3Z"/></svg>

<svg xmlns="http://www.w3.org/2000/svg" height="24" width="24"><path d="M4.3 20.825Q4.225 20.825 4.138 20.788Q4.05 20.75 3.975 20.675L3.075 19.75Q2.85 19.525 2.963 19.237Q3.075 18.95 3.4 18.95H20.675Q20.975 18.95 21.1 19.237Q21.225 19.525 21 19.75L20.075 20.675Q20 20.75 19.925 20.788Q19.85 20.825 19.75 20.825ZM3.25 17.9Q3.4 17.45 3.638 17.062Q3.875 16.675 4.2 16.35V9.025H3.95Q3.65 9.025 3.438 8.812Q3.225 8.6 3.225 8.3Q3.225 8 3.438 7.8Q3.65 7.6 3.95 7.6H4.2V6.85H3.95Q3.65 6.85 3.438 6.637Q3.225 6.425 3.225 6.125Q3.225 5.825 3.438 5.625Q3.65 5.425 3.95 5.425H4.2V4.675H3.95Q3.65 4.675 3.438 4.462Q3.225 4.25 3.225 3.95Q3.225 3.65 3.438 3.45Q3.65 3.25 3.95 3.25H9.725Q10.625 3.25 11.25 3.875Q11.875 4.5 11.875 5.425H20.2Q20.5 5.425 20.7 5.625Q20.9 5.825 20.9 6.125Q20.9 6.425 20.7 6.637Q20.5 6.85 20.2 6.85H11.875Q11.875 7.775 11.25 8.4Q10.625 9.025 9.725 9.025H8.1V15.075Q8.5 15.125 8.85 15.238Q9.2 15.35 9.5 15.575Q10.075 14.05 11.425 13.062Q12.775 12.075 14.525 12.075Q16.875 12.075 18.462 13.775Q20.05 15.475 19.825 17.85V17.9ZM11.375 16.025H17.675Q17.275 15.05 16.438 14.5Q15.6 13.95 14.525 13.95Q13.5 13.95 12.637 14.525Q11.775 15.1 11.375 16.025ZM8.1 5.425H10V4.675Q10 4.675 10 4.675Q10 4.675 10 4.675H8.1ZM8.1 7.6H10Q10 7.6 10 7.6Q10 7.6 10 7.6V6.85H8.1ZM5.625 5.425H6.675V4.675H5.625ZM5.625 7.6H6.675V6.85H5.625ZM5.625 15.35Q5.85 15.225 6.113 15.162Q6.375 15.1 6.675 15.05V9.025H5.625ZM11.375 16.025Q11.775 16.025 12.625 16.025Q13.475 16.025 14.525 16.025Q15.6 16.025 16.438 16.025Q17.275 16.025 17.675 16.025Z"/></svg>
